X: 26648
T: Middlejig
R: jig
M: 6/8
K: Dmajor
DAA dAA|DAA BdB|DFF DGG|DAA BdB|
A F2 D d2|B D2 A D2|GDF DED|D6|
DAA dAA|DAA BdB|DFF DGG|DAA A A2|
BGG G G2|AEF G D2|A D4 d|

